!!!COM: Beethoven
!!!OTL: Six Variations on an Original Theme
!!!Variation: Variation 2 a
**function	**harm	**kern	**kern
*M2/4	*M2/4	*staff1	*staff2
*D:	*D:	*clefG2	*clefF4
*tb16	*	*k[f#c#]	*k[f#c#]
*	*	*M2/4	*M2/4
*	*	*D:	*D:
=-	=-	=	=
2T	2I	(16f#LL 16a	8DDL)
.	.	16A)	.
.	.	(16d 16f#	8DDJ 8D
.	.	16AJJ)	.
.	.	8dd' 8ff#'	8r
.	.	8r	8d' 8f#'
=	=	=34	=34
2T	2I	(16f#LL 16a	8r
.	.	16A)	.
.	.	(16d 16f#	8DD 8D
.	.	16AJJ)	.
.	.	8dd' 8ff#'	8r
.	.	8r	8d' 8f#'
=	=	=35	=35
2T	2ii	16e	16r
.	.	16r	16E
.	.	16d	16r
.	.	16r	16D
.	.	16c#	16r
.	.	16r	16C#
.	.	16B	16r
.	.	16r	16BB
=	=	=36	=36
2T	2V	16A	16r
.	.	16r	16AA
.	.	16G	16r
.	.	16r	16GG
.	.	16F#	16r
.	.	16r	16FF#
.	.	16E	16r
.	.	16r	16EE
=	=	=37	=37
2T	2I	(16f#LL 16a	8r
.	.	16A)	.
.	.	16d 16f#	8DD 8D
.	.	16AJJ	.
.	.	8dd' 8ff#'	8r
.	.	8r	8d' 8f#'
=	=	=38	=38
2T	2I	(16f#LL 16a	8r
.	.	16A)	.
.	.	16d 16f#	8DD 8D
.	.	16AJJ	.
.	.	8dd' 8ff#'	8r
.	.	8r	8d' 8f#'
=	=	=39	=39
2P	2ii	16e	16r
.	.	16r	16E
.	.	16d	16r
.	.	16r	16D
.	.	16c#	16r
.	.	16r	16C#
.	.	16B	16r
.	.	16r	16BB
=	=	=40	=40
8D	8V	16A	16r
.	.	16r	16AA
8D	8V6/vi	16A#	16r
.	.	16r	16AA#
8T	8vi	16B	16r
.	.	16r	16BB
8D	8V6	16c#	16r
.	.	16r	16C#
=	=	=41:|!|:	=41:|!|:
*-	*-	*-	*-
